X: 26952
T: Miss Carmichael's
R: jig
M: 6/8
K: Fmajor
c|:f2a f2a|b2g g2f|ecc cde|fag fcA|
f2a f2a|b2g g2f|ecc cde|1 fag f2c:|2 fag f3||
|:cAA ABc|dBB Bgf|ecc cde|fef afd|
cAA ABc|dBB Bgf|ecc cde|1 fag f3:|2 fag f2||

